X: 14246
T: Further, The Deeper, The
R: jig
M: 6/8
K: Amixolydian
A|:ege edB|dBA A2B|GBA Gge|dBA G2g|
fed ef^g|a^ga e2f|g2e dBd|1 ecA A2d:|2 ecA A2e||
|:aga efg|aga e2f|gfg def|gec d2e|
[1 aga efg|aga e2f|g2e dBd|ecA A2g:|
[2 agf gfe|fed edB|g2e dBd|ecA A2d||

